X: 1149
T: İndim Dere Irmağa
C: Muzaffer Sarısözen
O: Turkey
F: http://compmusic.upf.edu/node/140
N: ussak--turku--yuruksemai_ii--cilveloy--artvin
N: makam= ussak
N: form= turku
N: usul= yuruksemai_ii = 6/8
M: 6/8
L: 1/16
K: C _2/4B   
Q: 1/4=204
%%MIDI tuningsystem comma53
A4 e2e2 d4  | d2c2 d2d2 e4  | d2c2 B2A6  | \
w:  İn dim  de re   |  ır *  ma ğa  hoy   |  na  na  yı  da    | 
c2B2 c2d6  | d2c2 B2A6  | 
w:  Cil *  ve loy   |  na  na  yı  da    | 
A4 e2e2 d4  | d2c2 d2d2 e4  | d2c2 B2A6  | \
w:  Zey tin  da lı   |  kır *  ma ğa  hoy   |  na  na  yı  da    | 
c2B2 c2d6  | d2c2 B2A6  | 
w:  Cil *  ve loy   |  na  na  yı  da    | 
A4 e2e2 d4  | d2c2 d2d2 e4  | d2c2 B2A6  | \
w:  Gel dim  se ni   |  al *  ma ğa  hoy   |  na  na  yı  da    | 
c2B2 c2d6  | d2c2 B2A6  | 
w:  Cil *  ve loy   |  na  na  yı  da    | 
A4 e2e2 d4  | d2c2 d2d2 e4  | d2c2 B2A6  | \
w:  Baş la dın_ ağ  |  la *  ma ğa  hoy   |  na  na  yı  da    | 
c2B2 c2d6  | d2c2 B2A6  | 
w:  Cil *  ve loy   |  na  na  yı  da    | 
A4 e2e2 d4  | d2c2 d2d2 e4  | d2c2 B2A6  | \
w:  Nay  dı  nay  dı   |  na  na  yı  da  hoy   |  na  na  yı  da    | 
c2B2 c2d6  | d2c2 B2A6  | 
w:  Cil *  ve loy   |  na  na  yı  da    | 
|


